usr/share/icons/biglinux-icons-material/16/actions/remove-link.svg

<svg xmlns="http://www.w3.org/2000/svg" viewBox="0 0 16 16"><path d="M4 2v2H2v1h2v2h3V6H5V3h2V2H5Zm5 0v1h2v3H9v1h3V5h2V4h-2V2h-1zM7 4v1h2V4Z" style="fill:currentColor;fill-opacity:1;stroke:none;color:#dedede"/><path d="m9.71 9.03-.707.707 1.793 1.793-1.793 1.793.707.707 1.793-1.793 1.793 1.793.707-.707-1.793-1.793 1.793-1.793-.707-.707-1.793 1.793Z" style="fill:currentColor;fill-opacity:1;stroke:none;color:#da4453"/></svg>

<svg xmlns="http://www.w3.org/2000/svg" viewBox="0 0 16 16">
  <defs id="defs3051">
    <style type="text/css" id="current-color-scheme">
      .ColorScheme-Text {
        color:#363636;
      }
      .ColorScheme-NegativeText {
        color:#da4453;
      }
      </style>
  </defs>
 <path 
     style="fill:currentColor;fill-opacity:1;stroke:none" 
     d="M 4,2 4,4 2,4 2,5 4,5 4,7 7,7 7,6 5,6 5,3 7,3 7,2 5,2 Z m 5,0 0,1 2,0 0,3 -2,0 0,1 3,0 0,-2 2,0 0,-1 -2,0 0,-2 -1,0 z M 7,4 7,5 9,5 9,4 Z" 
     class="ColorScheme-Text"/>
  <path
      style="fill:currentColor;fill-opacity:1;stroke:none" 
     class="ColorScheme-NegativeText"
    d="M 9.71,9.03 9.003,9.737 10.796,11.53 9.003,13.323 9.71,14.03 11.503,12.237 13.296,14.03 14.003,13.323 12.21,11.53 14.003,9.737 13.296,9.03 11.503,10.823 Z" />
</svg>
